src/.vuepress/public/assets/websites/mini.ant.design.svg

<?xml version="1.0" encoding="UTF-8"?>
<svg width="153px" height="152px" viewBox="0 0 153 152" version="1.1" xmlns="http://www.w3.org/2000/svg" xmlns:xlink="http://www.w3.org/1999/xlink">
    <title>图形</title>
    <defs>
        <linearGradient x1="55.2905824%" y1="30.7944889%" x2="5.8956238%" y2="77.5858099%" id="linearGradient-1">
            <stop stop-color="#29CDFF" offset="0%"></stop>
            <stop stop-color="#148EFF" offset="36.2446377%"></stop>
            <stop stop-color="#0A60FF" offset="100%"></stop>
        </linearGradient>
        <linearGradient x1="56.0954868%" y1="27.8488943%" x2="46.0578358%" y2="80.2051011%" id="linearGradient-2">
            <stop stop-color="#FA816E" offset="0%"></stop>
            <stop stop-color="#F74A5C" offset="48.0123264%"></stop>
            <stop stop-color="#F51D2C" offset="100%"></stop>
            <stop stop-color="#F51D2C" offset="100%"></stop>
            <stop stop-color="#F51D2C" offset="100%"></stop>
        </linearGradient>
        <linearGradient x1="50%" y1="-22.9977195%" x2="50%" y2="100%" id="linearGradient-3">
            <stop stop-color="#FA8E7D" offset="0%"></stop>
            <stop stop-color="#F74A5C" offset="49.6339425%"></stop>
            <stop stop-color="#F51D2C" offset="100%"></stop>
        </linearGradient>
        <linearGradient x1="50%" y1="0%" x2="31.8311335%" y2="116.815793%" id="linearGradient-4">
            <stop stop-color="#4285EB" offset="0%"></stop>
            <stop stop-color="#2EC7FF" offset="100%"></stop>
        </linearGradient>
    </defs>
    <g id="页面-1" stroke="none" stroke-width="1" fill="none" fill-rule="evenodd">
        <g id="图形" transform="translate(-131.000000, -116.000000)">
            <g transform="translate(131.326675, 116.000000)">
                <g transform="translate(0.206057, 31.389880)">
                    <path d="M47.5041237,2.21921066 C55.257821,-2.30653843 65.2122791,0.310230603 69.7380282,8.06392789 L69.7380282,8.06392789 L110.062319,77.1491425 C110.070243,77.1627167 110.07813,77.1763116 110.085982,77.1899273 C112.561206,81.4822408 111.088164,86.9684142 106.795851,89.4436386 L106.795851,89.4436386 L58.1808077,24.3230311 C57.9168018,23.8725237 57.5414852,23.497395 57.0908458,23.2336146 C55.6380771,22.383241 53.7710114,22.8715787 52.9206378,24.3243474 L52.9206378,24.3243474 L16.6311457,86.3209095 C14.1430395,90.5715622 8.68528875,92.0085912 4.42652537,89.5343933 C4.4214222,89.5314285 4.41632198,89.5284586 4.41122472,89.5254837 C0.169913109,87.0501156 -1.26166696,81.6051709 1.21370114,77.3638593 L1.21370114,77.3638593 L41.6590613,8.06451931 C43.0711862,5.64497545 45.0846393,3.63143747 47.5041237,2.21921066 Z" id="形状结合" fill="url(#linearGradient-1)"></path>
                    <path d="M115.343103,2.40232959 C120.363565,2.40193241 124.441277,6.45726989 124.468502,11.4776585 L124.727442,59.2266014 C124.754511,64.2182785 120.729901,68.2867766 115.738224,68.3138461 C115.724479,68.3139206 115.710733,68.3139638 115.696987,68.3139757 C110.675882,68.3182956 106.595722,64.2632561 106.569035,59.2422199 L106.315164,11.4790998 C106.28866,6.49271211 110.309441,2.42896076 115.295828,2.40245709 C115.311586,2.40237333 115.327345,2.40233083 115.343103,2.40232959 Z" id="矩形" fill="url(#linearGradient-2)" transform="translate(115.521801, 35.361700) rotate(-30.000000) translate(-115.521801, -35.361700) "></path>
                    <path d="M142.646715,90.7261138 C147.659252,90.7261138 151.722717,86.7056523 151.722717,81.7461616 C151.722717,76.7866709 147.659252,72.7662093 142.646715,72.7662093 C137.634177,72.7662093 133.570713,76.7866709 133.570713,81.7461616 C133.570713,86.7056523 137.634177,90.7261138 142.646715,90.7261138 Z" id="椭圆形备份-7" fill="url(#linearGradient-3)"></path>
                    <path d="M114.608726,24.548443 L114.496771,24.3569845 C113.647043,22.9038378 111.780195,22.4146699 110.327048,23.2643974 C109.870872,23.5311464 109.491885,23.9119142 109.227278,24.369336 L104.081492,33.26475 L104.081492,33.26475 L72.9876112,86.1735298 C70.457838,90.4781456 64.930453,91.9378843 60.6051543,89.4436386 C56.3104458,86.9670331 54.8365821,81.4777986 57.3131875,77.1830901 C57.3202097,77.1709128 57.3272606,77.158752 57.3343399,77.1466078 L90.4754995,20.2950101 L90.4754995,20.2950101 C93.0959605,16.4503263 96.9221507,14.5279844 101.95407,14.5279844 C106.985989,14.5279844 111.204208,17.8681373 114.608726,24.548443 Z" id="路径-5" fill="url(#linearGradient-4)" transform="translate(83.700502, 54.238515) scale(-1, 1) translate(-83.700502, -54.238515) "></path>
                </g>
            </g>
        </g>
    </g>
</svg>

<svg xmlns="http://www.w3.org/2000/svg" width="153" height="152" viewBox="0 0 153 152"><defs><linearGradient id="a" x1="55.291%" x2="5.896%" y1="30.794%" y2="77.586%"><stop offset="0%" stop-color="#29CDFF"/><stop offset="36.245%" stop-color="#148EFF"/><stop offset="100%" stop-color="#0A60FF"/></linearGradient><linearGradient id="b" x1="56.095%" x2="46.058%" y1="27.849%" y2="80.205%"><stop offset="0%" stop-color="#FA816E"/><stop offset="48.012%" stop-color="#F74A5C"/><stop offset="100%" stop-color="#F51D2C"/><stop offset="100%" stop-color="#F51D2C"/><stop offset="100%" stop-color="#F51D2C"/></linearGradient><linearGradient id="c" x1="50%" x2="50%" y1="-22.998%" y2="100%"><stop offset="0%" stop-color="#FA8E7D"/><stop offset="49.634%" stop-color="#F74A5C"/><stop offset="100%" stop-color="#F51D2C"/></linearGradient><linearGradient id="d" x1="50%" x2="31.831%" y1="0%" y2="116.816%"><stop offset="0%" stop-color="#4285EB"/><stop offset="100%" stop-color="#2EC7FF"/></linearGradient></defs><g fill="none" fill-rule="evenodd"><path fill="url(#a)" d="M47.504 2.22C55.258-2.308 65.212.31 69.738 8.063l40.324 69.085.024.04a8.97 8.97 0 0 1-3.29 12.255L58.18 24.323a3.048 3.048 0 0 0-5.26.001L16.63 86.321a8.94 8.94 0 0 1-12.22 3.204 8.89 8.89 0 0 1-3.197-12.161l40.445-69.3a16.26 16.26 0 0 1 5.845-5.845" transform="translate(.533 31.39)"/><path fill="url(#b)" d="M115.343 2.402a9.125 9.125 0 0 1 9.126 9.076l.258 47.749a9.04 9.04 0 0 1-9.03 9.087 9.12 9.12 0 0 1-9.128-9.072l-.254-47.763a9.03 9.03 0 0 1 9.028-9.077" transform="rotate(-30 174.362 50.063)"/><path fill="url(#c)" d="M142.647 90.726c5.012 0 9.076-4.02 9.076-8.98s-4.064-8.98-9.076-8.98-9.076 4.02-9.076 8.98 4.063 8.98 9.076 8.98" transform="translate(.533 31.39)"/><path fill="url(#d)" d="m114.609 24.548-.112-.191a3.048 3.048 0 0 0-5.27.012l-5.146 8.896-31.093 52.909a9.093 9.093 0 0 1-12.383 3.27 8.977 8.977 0 0 1-3.27-12.297l33.14-56.852q3.931-5.767 11.48-5.767 7.547 0 12.654 10.02" transform="matrix(-1 0 0 1 167.934 31.39)"/></g></svg>
